icons/jiraalign/jiraalign-plain.svg

<?xml version="1.0" encoding="UTF-8"?>
<svg xmlns="http://www.w3.org/2000/svg" xmlns:xlink="http://www.w3.org/1999/xlink" width="128px" height="128px" viewBox="0 0 128 128" version="1.1">
<g id="surface1">
<path style=" stroke:none;fill-rule:nonzero;fill:rgb(0%,0%,0%);fill-opacity:1;" d="M 0.617188 0.496094 C 0.617188 24.410156 20.085938 43.914062 43.953125 43.914062 L 84.046875 43.914062 L 84.046875 84.316406 L 127.382812 84.316406 L 127.382812 7.695312 C 127.382812 3.980469 124.371094 0.726562 120.664062 0.726562 Z M 43.953125 43.914062 L 0.613281 43.914062 L 0.613281 120.539062 C 0.613281 124.253906 3.628906 127.503906 7.335938 127.503906 L 127.152344 127.503906 C 127.152344 103.589844 107.683594 84.316406 83.8125 84.316406 L 43.953125 84.316406 Z M 43.953125 43.914062 "/>
</g>
</svg>

<svg xmlns="http://www.w3.org/2000/svg" viewBox="0 0 128 128"><path d="M.617.496c0 23.914 19.469 43.418 43.336 43.418h40.094v40.402h43.336V7.696c0-3.716-3.012-6.97-6.719-6.97Zm43.336 43.418H.613v76.625c0 3.715 3.016 6.965 6.723 6.965h119.816c0-23.914-19.468-43.188-43.34-43.188H43.953Zm0 0"/></svg>
